!!!!SEGMENT: pl-kk--kk-i-81--001_anonim--missa-pastoralis-kyrie.krn
!!!cenid: 17xx:2303
!!!COM: Anonim
!!!COM-rismid: pe30004985
!!!CDT:
!!!CNT:
!!!OPR: Missa Pastoralis
!!!OTL: Kyrie
!!!OMV: 001
!!!PDT:
!!!AGN: Sacred; Mass
!!!SMS-siglum: PL-Kk
!!!SMS-shelfmark: Kk.I.81
!!!SMS-shelfwork: 001-001 M
!!!SMS-variant:
!!!SMS-altvar:
!!!NIFC-rismid: 1001155824
!!!URL-scan: http://repozytorium.nifc.pl/skany/pl-kk-nut--i-81
!!!ONB-nifc: UWAGA: części Mszy: 1. Kyrie, 2. Et in terra, 3. Sanctus, 4. Benedictus, 5. Agnus Dei.
!!!key:
**kern	**text	**kern	**text	**kern	**text	**kern	**text	**kern	**text
*part5	*part5	*part4	*part4	*part3	*part3	*part2	*part2	*part1	*part1
*staff5	*staff5	*staff4	*staff4	*staff3	*staff3	*staff2	*staff2	*staff1	*staff1
*Iempty	*	*Iempty	*	*Itenor	*	*Ialto	*	*Ivox	*
*I"Baſso eripieno	*	*I"Baſso	*	*I"Tenore	*	*I"Alto	*	*I"Canto	*
*I'B rip	*	*I'B 1	*	*I'T	*	*I'A	*	*I'S	*
*clefF4	*	*clefF4	*	*clefC4	*	*clefC3	*	*clefC1	*
*k[]	*	*k[]	*	*k[]	*	*k[]	*	*k[]	*
*C:	*	*C:	*	*C:	*	*C:	*	*C:	*
*M2/2	*	*M2/2	*	*M2/2	*	*M2/2	*	*M2/2	*
*met(c|)	*	*met(c|)	*	*met(c|)	*	*met(c|)	*	*met(c|)	*
=1	=1	=1	=1	=1	=1	=1	=1	=1	=1
*	*	*	*	*	*	*2\right	*	*2\right	*
!LO:TX:a:B:t=allô	!	!LO:TX:a:B:t=Allô	!	!LO:TX:a:B:t=Allo.	!	!	!	!LO:TX:a:B:t=Allo	!
4C/	Ky-	4C/	Ky-	2.G/	Ky-	2.e\	Ky-	2.cc\	Ky-
4c\	.	4c\	.	.	.	.	.	.	.
4G\	.	4G\	.	.	.	.	.	.	.
4E\	-ri-	4E\	-ri-	4G/	-ri-	4e\	-ri-	4cc\	-ri-
=2	=2	=2	=2	=2	=2	=2	=2	=2	=2
4C/	-e	4C/	-e	4G/	-e	4e\	-e	4cc\	-e
4r	.	4r	.	4G/	e-	4r	.	4ee\	e-
2r	.	2r	.	4F/	-lei-	2r	.	4dd\	-lei-
.	.	.	.	4E/	-son	.	.	4cc\	-son
=3	=3	=3	=3	=3	=3	=3	=3	=3	=3
*	*	*	*	*2\right	*	*	*	*	*
4GG/	Ky-	4GG/	Ky-	2.B\	Ky-	2.e\	Ky-	2.dd\	Ky-
4G/	.	4G\	.	.	.	.	.	.	.
4D/	.	4D\	.	.	.	.	.	.	.
4BB/	-ri-	4BB/	-ri-	4B\	-ri-	4e\	-ri-	4dd\	-ri-
=4	=4	=4	=4	=4	=4	=4	=4	=4	=4
4GG/	-e	4GG/	-e	4B\	-e	4e\	-e	4dd\	-e
4r	.	4r	.	4d\	e-	4r	.	4ff\	e-
2r	.	2r	.	4c\	-lei-	2r	.	4ee\	-lei-
.	.	.	.	4B\	-son	.	.	4dd\	-son
=5	=5	=5	=5	=5	=5	=5	=5	=5	=5
*	*ij	*	*ij	*	*	*	*	*	*
4C/	Ky-	4C/	Ky-	2.c\	Ky-	2.e\	Ky-	2.g/	Ky-
4D/	.	4D/	.	.	.	.	.	.	.
4E/	.	4E/	.	.	.	.	.	.	.
4D/	-ri-	4D/	-ri-	4c\	-ri-	4e\	-ri-	4g/	-ri-
=6	=6	=6	=6	=6	=6	=6	=6	=6	=6
4C/	-e	4C/	-e	4c\	-e	4e\	-e	4g/	-e
*	*Xij	*	*Xij	*	*	*	*	*	*
4r	.	4r	.	4e\	e-	4g\	e-	4r	.
2r	.	2r	.	4d\	-lei-	4f\	-lei-	2r	.
.	.	.	.	4c\	.	4e\	.	.	.
=7	=7	=7	=7	=7	=7	=7	=7	=7	=7
4r	.	4r	.	2B\	-son	2d\	-son	4r	.
4GG/	e-	4GG/	e-	.	.	.	.	4g/	e-
4AA/	-lei-	4AA/	-lei-	2r	.	2r	.	4f/	-lei-
4BB/	-son	4BB/	-son	.	.	.	.	4d/	.
=8	=8	=8	=8	=8	=8	=8	=8	=8	=8
2C/	Ky-	2C/	Ky-	00r	.	2e\	Ky-	2e/	-son
2E/	-ri-	2E/	-ri-	.	.	2c\	-ri-	2r	.
!	!	!LO:LB:g=original	!	!	!	!LO:LB:g=original	!	!	!
=9	=9	=9	=9	=9	=9	=9	=9	=9	=9
*2\right	*	*2\right	*	*	*	*	*	*	*
2G\	-e	2G\	-e	.	.	2e\	-e	00r	.
2A\	e-	2A\	e-	.	.	2f\	e-	.	.
!LO:LB:g=original	!	!	!	!	!	!	!	!	!
=10	=10	=10	=10	=10	=10	=10	=10	=10	=10
4F\	-lei-	4F\	-lei-	.	.	4d\	-lei-	.	.
4D\	.	4D\	.	.	.	4B\	.	.	.
4G\	.	4G\	.	.	.	4e\	.	.	.
4F\	.	4F\	.	.	.	4d\	.	.	.
=11	=11	=11	=11	=11	=11	=11	=11	=11	=11
4E\	-son	4E\	-son	.	.	4c\	.	.	.
4C\	e-	4C\	e-	.	.	4e\	.	.	.
4E\	-lei-	4E\	-lei-	.	.	4c\	.	.	.
4F#X\	.	4F#X\	.	.	.	4A\	.	.	.
=12	=12	=12	=12	=12	=12	=12	=12	=12	=12
2G\	-son	2G\	-son	2G/	Ky-	2B/	-son	.	.
4G\	Ky-	4G\	Ky-	2B/	-ri-	2r	.	.	.
4G\	-ri-	4G\	-ri-	.	.	.	.	.	.
!	!	!	!	!LO:LB:g=original	!	!	!	!	!
=13	=13	=13	=13	=13	=13	=13	=13	=13	=13
2B\	-e	2B\	-e	2d\	-e	0r	.	0r	.
2c\	e-	2c\	e-	2e\	e-	.	.	.	.
=14	=14	=14	=14	=14	=14	=14	=14	=14	=14
4A\	-lei-	4A\	-lei-	4c\	-lei-	.	.	.	.
4F#X\	.	4F#X\	.	4A\	.	.	.	.	.
4B\	.	4B\	.	4d\	.	.	.	.	.
4A\	.	4A\	.	4c\	.	.	.	.	.
=15	=15	=15	=15	=15	=15	=15	=15	=15	=15
4G\	-son	4G\	-son	4B\	-son	1r	.	1r	.
4E\	e-	4E\	e-	4G\	e-	.	.	.	.
4Fn\	-lei-	4Fn\	-lei-	4A\	-lei-	.	.	.	.
4D\	.	4D\	.	4B\	.	.	.	.	.
=16	=16	=16	=16	=16	=16	=16	=16	=16	=16
2C/	-son	2C/	-son	2c\	-son	2r	.	2r	.
4C/	Ky-	4C/	Ky-	4c\	Ky-	4g\	Ky-	4ee\	Ky-
4C/	-ri-	4C/	-ri-	4c\	-ri-	4g\	-ri-	4ee\	-ri-
!	!	!LO:LB:g=original	!	!	!	!	!	!LO:LB:g=original	!
=17	=17	=17	=17	=17	=17	=17	=17	=17	=17
(4BB/	-e	4BB/	-e	2B\	-e	2g\	-e	2dd\	-e
4GG/)	.	4GG/	.	.	.	.	.	.	.
4C/	e-	4C/	e-	2c\	e-	2g\	e-	2ee\	e-
4GG/	.	4GG/	.	.	.	.	.	.	.
=18	=18	=18	=18	=18	=18	=18	=18	=18	=18
4D/	-lei-	4D/	-lei-	1d	-lei-	1g	-lei-	1ff	-lei-
4C/	.	4C/	.	.	.	.	.	.	.
4BB/	.	4BB/	.	.	.	.	.	.	.
4GG/	.	4GG/	.	.	.	.	.	.	.
=19	=19	=19	=19	=19	=19	=19	=19	=19	=19
2C/	-son	2C/	-son	2c\	-son	2g\	-son	2ee\	-son
4BB/	e-	4BB/	e-	2G/	e-	4f\	e-	4dd\	e-
4C/	.	4C/	.	.	.	4e\	.	8ee\L	.
.	.	.	.	.	.	.	.	8cc\J	.
!LO:LB:g=original	!	!	!	!	!	!	!	!	!
=20	=20	=20	=20	=20	=20	=20	=20	=20	=20
1D	-lei-	1D	-lei-	2G/	-lei-	1d	-lei-	2b\	-lei-
.	.	.	.	2F#X/	.	.	.	2a\	-son
=21	=21	=21	=21	=21	=21	=21	=21	=21	=21
2GG/	-son	2GG/	-son	2G/	-son	2B/	-son	2g\	Ky-
2r	.	2r	.	2r	.	4G/	Ky-	2b\	-ri-
.	.	.	.	.	.	4G/	-ri-	.	.
!	!	!	!	!	!	!LO:LB:g=original	!	!	!
=22	=22	=22	=22	=22	=22	=22	=22	=22	=22
00r	.	00r	.	0r	.	2B/	-e	2dd\	-e
.	.	.	.	.	.	2c/	e-	2ee\	e-
=23	=23	=23	=23	=23	=23	=23	=23	=23	=23
.	.	.	.	.	.	4A/	-lei-	4cc\	-lei-
.	.	.	.	.	.	4F#X/	.	4a\	.
.	.	.	.	.	.	4B/	.	4dd\	.
.	.	.	.	.	.	4A/	.	4cc\	.
=24	=24	=24	=24	=24	=24	=24	=24	=24	=24
.	.	.	.	1r	.	4G/	-son	4b\	.
.	.	.	.	.	.	4g\	e-	4g\	.
.	.	.	.	.	.	4fn\	-lei-	4a\	.
.	.	.	.	.	.	4d\	.	4b\	.
=25	=25	=25	=25	=25	=25	=25	=25	=25	=25
.	.	.	.	2r	.	4e\	-son	4cc\	-son
.	.	.	.	.	.	4g\	e-	4ee\	e-
.	.	.	.	2G/	e-	4f\	.	4dd\	.
.	.	.	.	.	.	4e\	.	4cc\	.
!	!	!	!	!LO:LB:g=original	!	!	!	!	!
=26	=26	=26	=26	=26	=26	=26	=26	=26	=26
0r	.	0r	.	1G	-lei-	4d\	-lei-	4b\	-lei-
.	.	.	.	.	.	4f\	.	4dd\	.
.	.	.	.	.	.	4e\	.	4cc\	.
.	.	.	.	.	.	4d\	.	4b\	.
=27	=27	=27	=27	=27	=27	=27	=27	=27	=27
.	.	.	.	2d\	.	4c\	.	4a\	.
.	.	.	.	.	.	4e\	.	4cc\	.
.	.	.	.	2D/	.	4d\	.	4b\	.
.	.	.	.	.	.	4c\	.	4a\	.
!	!	!	!	!	!	!	!	!LO:LB:g=original	!
=28	=28	=28	=28	=28	=28	=28	=28	=28	=28
2r	.	2r	.	2G/	-son	2B/	-son	2g/	-son
4C/	Ky-	4C/	Ky-	4E/	Ky-	4c/	Ky-	4g/	Ky-
4C/	-ri-	4C/	-ri-	4E/	-ri-	4c/	-ri-	4g/	-ri-
=29	=29	=29	=29	=29	=29	=29	=29	=29	=29
2BB/	-e	2BB/	-e	2F/	-e	2d\	-e	2g/	-e
2C/	e-	2C/	e-	2G/	e-	2e\	e-	2g/	e-
=30	=30	=30	=30	=30	=30	=30	=30	=30	=30
1GG	-lei-	1GG	-lei-	1B	-lei-	1f	-lei-	1g	-lei-
!	!	!	!	!	!	!LO:LB:g=original	!	!	!
=31	=31	=31	=31	=31	=31	=31	=31	=31	=31
2C/	-son	2C/	-son	2c\	-son	2e\	-son	2g/	-son
2C/	e-	2C/	e-	2c\	e-	2e\	e-	2g/	e-
=32	=32	=32	=32	=32	=32	=32	=32	=32	=32
!LO:N:vis=0	!	!LO:N:vis=0	!	!LO:N:vis=0	!	!LO:N:vis=0	!	!LO:N:vis=0	!
1F	-lei-	1F	-lei-	1c	-lei-	1c	-lei-	1a	-lei-
=33	=33	=33	=33	=33	=33	=33	=33	=33	=33
!LO:N:vis=0	!	!LO:N:vis=0	!	!LO:N:vis=0	!	!LO:N:vis=0	!	!LO:N:vis=0	!
1C	-son	1C	-son	1c	-son	1e	-son	1g	-son
!LO:LB:g=original	!	!LO:LB:g=original	!	!LO:LB:g=original	!	!	!	!	!
=34||	=34||	=34||	=34||	=34||	=34||	=34||	=34||	=34||	=34||
*M3/2	*	*M3/2	*	*M3/2	*	*M3/2	*	*M3/2	*
!	!	!LO:TX:a:B:t=And&colon;	!	!LO:TX:a:B:t=And&colon;	!	!	!	!LO:TX:a:B:t=And	!
4.C/	Chri-	4.C/	Chri-	4E/	Chris-	2e\	Chri-	2cc\	Chri-
.	.	.	.	4F/	.	.	.	.	.
8D/	.	8D/	.	.	.	.	.	.	.
4.E/	-ste	4.E/	-ste	4G/	.	2e\	-ste	2cc\	-ste
.	.	.	.	4F/	.	.	.	.	.
8D/	.	8D/	.	.	.	.	.	.	.
4.E/	e-	4.E/	e-	4G/	-te	2e\	e-	2cc\	e-
.	.	.	.	4E/	e-	.	.	.	.
8D/	.	8D/	.	.	.	.	.	.	.
=35	=35	=35	=35	=35	=35	=35	=35	=35	=35
1BB	-lei-	1BB	-lei-	1G	-lei-	1f	-lei-	1dd	-lei-
2BB/	-son	2BB/	-son	2G/	-son	2f\	-son	2dd\	-son
=36	=36	=36	=36	=36	=36	=36	=36	=36	=36
4C/	Chri-	(4C/	Chri-	2c\	Chri-	2g\	Chri-	2ee\	Chri-
4D/	.	4D/)	.	.	.	.	.	.	.
4E/	-ste	(4E/	-ste	2c\	-ste	2g\	-ste	2ee\	-ste
4D/	.	4D/)	.	.	.	.	.	.	.
4E/	e-	(4E/	e-	2c\	e-	2g\	e-	2ee\	e-
4C/	.	4C/)	.	.	.	.	.	.	.
=37	=37	=37	=37	=37	=37	=37	=37	=37	=37
1GG	-lei-	1GG	-lei-	1B	-lei-	1g	-lei-	1dd	-lei-
2GG/	-son	2GG/	-son	2B\	-son	2g\	-son	2dd\	-son
!	!	!	!	!	!	!	!	!LO:LB:g=original	!
=38	=38	=38	=38	=38	=38	=38	=38	=38	=38
1.r	.	1.r	.	1.r	.	2e\	Chri-	2cc\	Chri-
.	.	.	.	.	.	2e\	-ste	2cc\	-ste
.	.	.	.	.	.	2g\	e-	2ee\	e-
=39	=39	=39	=39	=39	=39	=39	=39	=39	=39
2r	.	2r	.	2r	.	4f\	-lei-	4dd\	-lei-
.	.	.	.	.	.	4d\	.	4b\	.
2r	.	2r	.	2r	.	2e\	-son	2cc\	-son
2C/	e-	2C/	e-	2e\	e-	2r	.	2r	.
!	!	!	!	!	!	!LO:LB:g=original	!	!	!
=40	=40	=40	=40	=40	=40	=40	=40	=40	=40
!LO:N:vis=4	!	!	!	!	!	!	!	!	!
2D/	-lei-	2D/	-lei-	2f\	-lei-	1.ryy	.	1.r	.
!LO:N:vis=4	!	!	!	!	!	!	!	!	!
2BB/	.	2BB/	.	2d\	.	.	.	.	.
2C/	-son	2C/	-son	2e\	-son	.	.	.	.
=41	=41	=41	=41	=41	=41	=41	=41	=41	=41
1BB	Chri-	1BB	Chri-	1d	Chri-	1f	Chri-	1g	Chri-
2C/	-ste	2C/	-ste	2c\	-ste	2e\	-ste	2g/	-ste
!	!	!LO:LB:g=original	!	!	!	!	!	!	!
=42	=42	=42	=42	=42	=42	=42	=42	=42	=42
*	*ij	*	*ij	*	*ij	*	*ij	*	*ij
1D	Chri-	1D	Chri-	1B	Chri-	1f	Chri-	1g	Chri-
2C/	-ste	2C/	-ste	2c\	-ste	2e\	-ste	2g/	-ste
*	*Xij	*	*Xij	*	*Xij	*	*Xij	*	*Xij
!LO:LB:g=original	!	!	!	!	!	!	!	!	!
=43	=43	=43	=43	=43	=43	=43	=43	=43	=43
2F\	e-	2F\	e-	(2f\	e-	2f\	e-	2f/	e-
2D\	-lei-	2D\	-lei-	2d\)	.	2d\	-lei-	2d/	-lei-
2G\	.	2G\	.	2g\	-lei-	2g\	.	2g/	.
!	!	!	!	!LO:LB:g=original	!	!	!	!	!
=44	=44	=44	=44	=44	=44	=44	=44	=44	=44
1C	-son	1C	-son	1c	-son	1c	-son	1cc	-son
2E\	e-	2E\	e-	2e\	e-	2e\	e-	2ee\	e-
=45	=45	=45	=45	=45	=45	=45	=45	=45	=45
2F\	-lei-	2F\	-lei-	2f\	-lei-	2f\	-lei-	2ff\	-lei-
2D\	.	2D\	.	2d\	.	2d\	.	2dd\	.
2G\	.	2G\	.	2B\	.	2g\	.	2gg\	.
=46	=46	=46	=46	=46	=46	=46	=46	=46	=46
1.C	-son	1.C	-son	1.c	-son	1.g	-son	1.cc	-son
!	!	!LO:LB:g=original	!	!	!	!LO:LB:g=original	!	!LO:LB:g=original	!
=47||	=47||	=47||	=47||	=47||	=47||	=47||	=47||	=47||	=47||
*M4/4	*	*M4/4	*	*M4/4	*	*M4/4	*	*M4/4	*
*met(c)	*	*met(c)	*	*met(c)	*	*met(c)	*	*met(c)	*
!LO:TX:a:B:t=allo	!	!LO:TX:a:B:t=allô	!	!LO:TX:a:B:t=Allo	!	!	!	!LO:TX:a:B:t=Allô	!
8C/	Ky-	8C/	Ky-	8G/	Ky-	8e\	Ky-	8cc\	Ky-
8BB/	-ri-	8BB/	-ri-	8G/	-ri-	8f\	-ri-	8dd\	-ri-
8C/	-e	8C/	-e	8G/	-e	8g\	-e	8ee\	-e
8C/	e-	8C/	e-	8G/	e-	8e\	e-	8dd\	e-
4G\	-lei-	4G\	-lei-	4G/	-lei-	4g\	-lei-	4dd\	-lei-
4GG/	-son	4GG/	-son	4G/	-son	4g\	-son	4g\	-son
=48	=48	=48	=48	=48	=48	=48	=48	=48	=48
8C/	Ky-	8C/	Ky-	8G/	Ky-	1r	.	8ee\	Ky-
8D/	-ri-	8D/	-ri-	8G/	-ri-	.	.	8ff\	-ri-
8E/	-e	8E/	-e	8G/	-e	.	.	8gg\	-e
8C/	e-	8C/	e-	8G/	e-	.	.	8cc\	e-
4D/	-lei-	4D/	-lei-	4G/	-lei-	.	.	4ff\	-lei-
4GG/	-son	4GG/	-son	4G/	-son	.	.	4dd\	-son
!LO:LB:g=original	!	!	!	!	!	!	!	!	!
=49	=49	=49	=49	=49	=49	=49	=49	=49	=49
8C/	Ky-	8C/	Ky-	8G/	Ky-	8c/	Ky-	8ee\	Ky-
8C/	-ri-	8C/	-ri-	8G/	-ri-	8e/	-ri-	8cc\	-ri-
4GG/	-e	4GG/	-e	4B/	-e	4g\	-e	4dd\	-e
8C/	e-	8C/	e-	8G/	e-	8c\	e-	8ee\	e-
8C/	-lei-	8C/	-lei-	8G/	-lei-	8e\	-lei-	8cc\	-lei-
4GG/	-son	4GG/	-son	4B/	-son	4g\	-son	4dd\	-son
!	!	!	!	!LO:LB:g=original	!	!	!	!	!
=50	=50	=50	=50	=50	=50	=50	=50	=50	=50
8C/	Ky-	8C/	Ky-	8G/	Ky-	8g\	Ky-	8ee\	Ky-
8E/	-ri-	8E/	-ri-	8G/	-ri-	8e\	-ri-	8cc\	-ri-
8G/	-e	8G/	-e	8G/	-e	8f\	-e	8dd\	-e
8GG/	e-	8GG/	e-	8G/	e-	8d\	e-	8b\	e-
4C/	-lei-	4C/	-lei-	4G/	-lei-	4e\	-lei-	4cc\	-lei-
4C/	-son	4C/	-son	4G/	-son	4e\	-son	4cc\	-son
!	!	!LO:LB:g=original	!	!	!	!LO:LB:g=original	!	!LO:LB:g=original	!
=51	=51	=51	=51	=51	=51	=51	=51	=51	=51
!LO:TX:t=P:problem:mixed beam	!	!LO:TX:t=P:problem:mixed beam	!	!	!	!	!	!	!
8C/L	Ky-	8C/L	Ky-	4.e\	Ky-	4.g\	Ky-	4.cc\	Ky-
8c\	.	8c\	.	.	.	.	.	.	.
8G\J	.	8G\J	.	.	.	.	.	.	.
8E/	-ri-	8E\	-ri-	8e\	-ri-	8g\	-ri-	8cc\	-ri-
8C/	-e	8C/	-e	8e\	-e	8g\	-e	8cc\	-e
8r	.	8r	.	8g\	e-	8r	.	8ee\	e-
4r	.	4r	.	8f\	-lei-	4r	.	8dd\	-lei-
.	.	.	.	8e\	-son	.	.	8cc\	-son
=52	=52	=52	=52	=52	=52	=52	=52	=52	=52
*	*	*	*	*	*	*	*ij	*	*
!	!	!LO:TX:t=P:problem:mixed beam	!	!	!	!	!	!	!
8GG/L	Ky-	8GG/L	Ky-	4.B\	Ky-	4.g\	Ky-	4.dd\	Ky-
8G/J	.	8G\J	.	.	.	.	.	.	.
8D/L	-ri-	8D/L	-ri-	.	.	.	.	.	.
8BB/J	.	8BB/J	.	8B\	-ri-	8g\	-ri-	8dd\	-ri-
8GG/	-e	8GG/	-e	8B\	-e	8g\	-e	8dd\	-e
8r	.	8r	.	8d\	e-	8r	.	8ff\	e-
4r	.	4r	.	8c\	-lei-	4r	.	8ee\	-lei-
.	.	.	.	8B\	-son	.	.	8dd\	-son
=53	=53	=53	=53	=53	=53	=53	=53	=53	=53
4.C/	Ky-	4.C/	Ky-	4.c\	Ky-	4.g\	Ky-	4.ee\	Ky-
8C/	-ri-	8C/	-ri-	8c\	-ri-	8g\	-ri-	8ee\	-ri-
8C/	-e	8C/	-e	4c\	-e	8g\	-e	4ee\	-e
*	*	*	*	*	*	*	*Xij	*	*
8E/	e-	8E/	e-	.	.	8f\	e-	.	.
8D/	-lei-	8D/	-lei-	4r	.	8e\	-lei-	4r	.
8C/	-son	8C/	-son	.	.	8d\	.	.	.
!LO:LB:g=original	!	!	!	!	!	!	!	!	!
=54	=54	=54	=54	=54	=54	=54	=54	=54	=54
4G\	e-	4G\	e-	4r	.	4d\	-son	4r	.
4A\	.	4A\	.	4A/	e-	4f\	e-	4cc\	e-
4F\	-lei-	4F\	-lei-	4A/	-lei-	2g\	-lei-	4dd\	-lei-
4G\	.	4G\	.	4d\	.	.	.	4b\	.
!	!	!	!	!LO:LB:g=original	!	!	!	!	!
=55	=55	=55	=55	=55	=55	=55	=55	=55	=55
4C/	-son	4C/	-son	4e\	-son	4g\	-son	4cc\	-son
8G\	Ky-	8G\	Ky-	8G/	Ky-	8g\	Ky-	8gg\	Ky-
8G\	-ri-	8G\	-ri-	8G/	-ri-	8g\	-ri-	8gg\	-ri-
!	!	!LO:LB:g=original	!	!	!	!	!	!	!
4E\	-e	4E\	-e	4E/	-e	4e\	-e	4ee\	-e
4BB/	e-	4BB/	e-	4B/	e-	4B/	e-	4b\	e-
!	!	!	!	!	!	!	!	!LO:LB:g=original	!
=56	=56	=56	=56	=56	=56	=56	=56	=56	=56
4C/	-lei-	4C/	-lei-	4c/	-lei-	4c/	-lei-	4cc\	-lei-
4G/	-son	4G/	-son	4G/	-son	4g/	-son	4gg\	-son
4E/	Ky-	4E/	Ky-	4E/	Ky-	4e/	Ky-	4ee\	K-
4BB/	-ri-	4BB/	-ri-	4B/	-ri-	4B/	-ri-	4b\	-ri-
!	!	!	!	!	!	!LO:LB:g=original	!	!	!
=57	=57	=57	=57	=57	=57	=57	=57	=57	=57
4C/	-e	4C/	-e	4G/	-e	4c/	-e	4cc\	-e
4C/	e-	4C/	e-	4G/	e-	4e\	e-	4ee\	e-
2F\	-lei-	2F\	-lei-	2A/	-lei-	2f\	-lei-	2cc\	-lei-
=58	=58	=58	=58	=58	=58	=58	=58	=58	=58
1C	-son	1C	-son	1G	-son.	1e	-son	1cc	-son
==	==	==	==	==	==	==	==	==	==
*-	*-	*-	*-	*-	*-	*-	*-	*-	*-
!!!system-decoration: [(s1,s2,s3,s4)]s5
!!!AIN: 1 alto 2 empty 1 tenor 1 vox
!!!ENC: Andrzej Kubiczek
!!!END: 2021-08-07
!!!ENC: Anastazja Marusiak
!!!END: 2021-07-13
